!!!COM: Gaspar van Weerbeke
!!!CDT: ~1450-~1517
!!!OTL: Sans regretz
!!!AGN: Song; Chanson
!!!SCT: Gas0505
!!!SCA: Gas0505
!!!voices: 3
**kern	**text	**text	**text	**kern	**text	**text	**text	**kern	**text	**text	**text
*part3	*part3	*part3	*part3	*part2	*part2	*part2	*part2	*part1	*part1	*part1	*part1
*staff3	*staff3	*staff3	*staff3	*staff2	*staff2	*staff2	*staff2	*staff1	*staff1	*staff1	*staff1
*I"Bassus	*	*	*	*I"Tenor	*	*	*	*I"Superius	*	*	*
*I'B	*	*	*	*I'T	*	*	*	*I'S	*	*	*
*clefF4	*	*	*	*clefGv2	*	*	*	*clefG2	*	*	*
*k[b-]	*	*	*	*k[b-]	*	*	*	*k[b-]	*	*	*
*F:	*	*	*	*F:	*	*	*	*F:	*	*	*
*M2/2	*	*	*	*M2/2	*	*	*	*M2/2	*	*	*
*met(C|)	*	*	*	*met(C|)	*	*	*	*met(C|)	*	*	*
=1	=1	=1	=1	=1	=1	=1	=1	=1	=1	=1	=1
*	*v:1,4,7.	*v:3	*v:5	*	*v:1,4,7.	*v:3	*v:5	*	*v:1,4,7.	*v:3	*v:5
*	*	*edit	*edit	*	*	*edit	*edit	*	*	*edit	*edit
1F	Sans	Per-	Mais	1F	Sans	Per-	Mais	1f	Sans	Per-	Mais
=2	=2	=2	=2	=2	=2	=2	=2	=2	=2	=2	=2
2F	re-	-du	elle	2A	re-	-du	elle	2f	re-	-du	elle
2D	-gretz	a	y	2B-	-gretz	a	y	2f	-gretz	a-	y
=3	=3	=3	=3	=3	=3	=3	=3	=3	=3	=3	=3
*	*edit	*	*	*lig	*	*	*	*	*	*	*
4C	veul	voit	a	1c	veul	voit	a	4e	veul	-voit	a
2E-X	.	.	.	.	.	.	.	2g	.	.	.
8DL	.	.	.	.	.	.	.	8fL	.	.	.
8CJ	.	.	.	.	.	.	.	8eJ	.	.	.
=4	=4	=4	=4	=4	=4	=4	=4	=4	=4	=4	=4
1BB-	.	.	.	1d	.	.	.	2f	.	.	.
.	.	.	.	.	.	.	.	2f	en-	il	pour-
=5	=5	=5	=5	=5	=5	=5	=5	=5	=5	=5	=5
4.C	en-	il	pour-	[1c	.	.	.	4.e	-tre-	tou-	.
8D	.	.	.	.	.	.	.	8f	.	.	.
4E	.	.	.	.	.	.	.	4g	.	.	.
4F	.	.	.	.	.	.	.	4a	.	.	.
!!LO:LB:g=original
=6	=6	=6	=6	=6	=6	=6	=6	=6	=6	=6	=6
4E	.	.	.	2c]	.	.	.	4g	.	.	.
*	*	*	*	*Xlig	*	*	*	*	*	*	*
2F	.	.	.	.	.	.	.	2cc	-te-	.	.
.	.	.	.	2d	en-	il	pour-	.	.	.	.
4G	.	.	.	.	.	.	.	4bni	.	.	.
=7	=7	=7	=7	=7	=7	=7	=7	=7	=7	=7	=7
2A	-tre-	tou-	-veu	4.c	-tre-	tou-	-veu	2cc	-nir	-te	-veu
.	.	.	.	8d	.	.	.	.	.	.	.
4G	.	.	.	4e	.	.	.	4r	.	.	.
*	*	*	*	*	*	*	*	*	*edit	*	*
[4A	.	.	.	4f	.	.	.	[4cc	mon	sa	par
=8	=8	=8	=8	=8	=8	=8	=8	=8	=8	=8	=8
4A]	.	.	.	4e	.	.	.	4cc]	.	.	.
8GL	.	.	.	4f	.	.	.	8b-L	.	.	.
8FJ	.	.	.	.	.	.	.	8aJ	.	.	.
2G	-te-	-te	par	4.d	-te-	.	par	2b-	.	.	.
.	.	.	.	8e	.	.	.	.	.	.	.
=9	=9	=9	=9	=9	=9	=9	=9	=9	=9	=9	=9
2F	-nir	sa	grant	2.f	-nir	-te	grant	2a	.	.	grant
2BB-	.	.	.	.	.	.	.	2dd	.	.	.
.	.	.	.	4d	.	sa	.	.	.	.	.
!!LO:LB:g=original
=10	=10	=10	=10	=10	=10	=10	=10	=10	=10	=10	=10
2C	mon	vi-	dou-	4e	.	.	.	4cc	.	.	.
.	.	.	.	2c	mon	vi-	dou-	2a	.	vi-	dou-
2D	.	.	.	.	.	.	.	.	.	.	.
.	.	.	.	4Bni	.	.	.	8gL	.	.	.
.	.	.	.	.	.	.	.	8fJ	.	.	.
=11	=11	=11	=11	=11	=11	=11	=11	=11	=11	=11	=11
1C	cueur,	-gueur	-ceur.	4c	.	.	.	4e	.	.	.
.	.	.	.	4A	.	.	.	2f	.	.	.
.	.	.	.	2G	.	.	.	.	.	.	.
.	.	.	.	.	.	.	.	4e	.	.	.
=12	=12	=12	=12	=12	=12	=12	=12	=12	=12	=12	=12
2r	.	.	.	[1F	cueur,	-gueur	-ceur.	1f	cueur,	-gueur	-ceur.
2c	Qui	Tel	Or	.	.	.	.	.	.	.	.
=13	=13	=13	=13	=13	=13	=13	=13	=13	=13	=13	=13
2c	long	deuil	scet	1F]	.	.	.	2r	.	.	.
4d	.	me-	.	.	.	.	.	2a	Qui	Tel	Or
[4c	temps	-noit	.	.	.	.	.	.	.	.	.
=14	=14	=14	=14	=14	=14	=14	=14	=14	=14	=14	=14
8cL]	.	.	.	2r	.	.	.	2.a	long	deuil	scet
8B-	.	.	.	.	.	.	.	.	.	.	.
8A	.	.	.	.	.	.	.	.	.	.	.
8GJ	.	.	.	.	.	.	.	.	.	.	.
2F	.	.	.	2c	Qui	Tel	Or	.	.	.	.
.	.	.	.	.	.	.	.	8gL	.	.	.
.	.	.	.	.	.	.	.	8fJ	.	.	.
!!LO:LB:g=original
=15	=15	=15	=15	=15	=15	=15	=15	=15	=15	=15	=15
2C	a	que	.	2c	long	deuil	scet	4a	.	.	.
.	.	.	.	.	.	.	.	2g	temps	me-	.
2C	souf-	j'a	il	2c	temps	me-	il	.	.	.	.
.	.	.	.	.	.	.	.	8fL	.	.	.
.	.	.	.	.	.	.	.	8eJ	.	.	.
=16	=16	=16	=16	=16	=16	=16	=16	=16	=16	=16	=16
2G	-fert,	vois	bien	2B-	a	-noit	bien	2d	.	.	.
4r	.	.	.	4G	.	que	dont	4e	a	.	il
4F	a	bien	dont	4A	.	.	.	4f	.	.	.
=17	=17	=17	=17	=17	=17	=17	=17	=17	=17	=17	=17
4G	souf-	.	.	4G	.	.	.	4.e	.	.	.
4A	.	.	.	2c	souf-	j'a-	luy	.	.	.	.
.	.	.	.	.	.	.	.	8c	.	.	.
2G	-fert	.	.	.	.	.	.	4.d	souf-	.	.
.	.	.	.	4Bni	.	.	.	.	.	.	.
.	.	.	.	.	.	.	.	8c	.	.	.
!!LO:PB:g=original
=18	=18	=18	=18	=18	=18	=18	=18	=18	=18	=18	=18
2r	.	.	.	2c	-fert	-vois	vient	2A	-fert	-noit	bien
*	*	*	*	*col	*	*	*	*	*	*	*
2F	deuil	grand	luy	4.A	.	.	.	4r	.	.	.
.	.	.	.	.	.	.	.	[4f	deuil	que	dont
.	.	.	.	8F	.	.	.	.	.	.	.
*	*	*	*	*Xcol	*	*	*	*	*	*	*
=19	=19	=19	=19	=19	=19	=19	=19	=19	=19	=19	=19
2C	et	peur,	vient	2G	deuil	bien	ce	4f]	.	.	.
.	.	.	.	.	.	.	.	4e	.	.	.
4r	.	.	.	4A	et	.	.	4c	et	j'a-	luy
[4BB-	lan-	grand	ce	[4B-	lan-	grand	grand	[4d	lan-	-vois	vient
=20	=20	=20	=20	=20	=20	=20	=20	=20	=20	=20	=20
4BB-]	.	.	.	4B-]	.	.	.	8dL]	.	.	.
.	.	.	.	.	.	.	.	8c	.	.	.
4C	.	.	.	2A	.	.	.	8B-	.	.	.
.	.	.	.	.	.	.	.	8AJ	.	.	.
4D	.	.	.	.	.	.	.	2B-	.	.	.
4E	.	.	.	4G	.	.	.	.	.	.	.
=21	=21	=21	=21	=21	=21	=21	=21	=21	=21	=21	=21
4F	.	.	.	[1A	-gueur,	peur	heur:	1A	-gueur,	bien	ce
2D	.	.	grand	.	.	.	.	.	.	.	.
8CL	.	.	.	.	.	.	.	.	.	.	.
8BB-J	.	.	.	.	.	.	.	.	.	.	.
=22	=22	=22	=22	=22	=22	=22	=22	=22	=22	=22	=22
2.AA	-gueur,	peur,	heur,	1A]	.	.	.	2.c	lan-	grand	grand
[4A	lan-	grand	grand	.	.	.	.	4d	.	.	.
!!LO:LB:g=original
=23	=23	=23	=23	=23	=23	=23	=23	=23	=23	=23	=23
4A]	.	.	.	2c	Re-	Que	C'est	1e	-gueur,	peur	heur:
8GL	.	.	.	.	.	.	.	.	.	.	.
8FJ	.	.	.	.	.	.	.	.	.	.	.
2E	.	.	.	2c	-mede	ne	ma	.	.	.	.
=24	=24	=24	=24	=24	=24	=24	=24	=24	=24	=24	=24
1D	-gueur,	peur	heur:	2.d	.	.	.	2r	.	.	.
.	.	.	.	.	.	.	.	2f	Re-	Que	C'est
.	.	.	.	8cL	.	.	.	.	.	.	.
.	.	.	.	8B-J	.	.	.	.	.	.	.
=25	=25	=25	=25	=25	=25	=25	=25	=25	=25	=25	=25
2A	Re-	Que	C'est	2c	.	.	.	4.e	-mede	ne	ma
.	.	.	.	.	.	.	.	8f	.	.	.
4G	.	.	.	4B-	.	.	.	4g	.	.	.
[4F	.	.	.	4A	.	.	.	[4a	.	.	.
=26	=26	=26	=26	=26	=26	=26	=26	=26	=26	=26	=26
4F]	.	.	.	2.c	.	.	.	4a]	.	.	.
8EL	.	.	.	.	.	.	.	8gL	.	.	.
8DJ	.	.	.	.	.	.	.	8fJ	.	.	.
2C	-mede	.	.	.	.	.	.	4e	.	.	.
.	.	.	.	4A	.	.	.	4cc	.	.	.
=27	=27	=27	=27	=27	=27	=27	=27	=27	=27	=27	=27
4r	.	.	.	4G	.	.	.	4b-	.	.	.
4F	y	ne	ma	4A	.	.	.	2a	.	.	.
4D	.	.	.	2B-	.	.	.	.	.	.	.
4E	.	.	.	.	.	.	.	4g	.	.	.
!!LO:LB:g=original
=28	=28	=28	=28	=28	=28	=28	=28	=28	=28	=28	=28
2F	.	.	.	2A	.	.	.	2a	.	.	.
2BB-	.	.	.	2d	y	cre-	da-	4.f	y	cre-	da-
.	.	.	.	.	.	.	.	8g	.	.	.
=29	=29	=29	=29	=29	=29	=29	=29	=29	=29	=29	=29
4r	.	.	.	2c	.	.	.	8aL	.	.	.
.	.	.	.	.	.	.	.	8b-J	.	.	.
2F	n'ay	cre-	de-	.	.	.	.	4a	.	.	.
.	.	.	.	4A	.	.	.	4f	.	.	.
[4E-	.	.	.	[4B-	.	.	.	[4g	.	.	.
=30	=30	=30	=30	=30	=30	=30	=30	=30	=30	=30	=30
4E-]	.	.	.	8B-L]	.	.	.	8gL]	.	.	.
.	.	.	.	8A	.	.	.	8fJ	.	.	.
4F	.	.	.	8G	.	.	.	2f	.	.	.
.	.	.	.	8FJ	.	.	.	.	.	.	.
2C	.	-vast	-me	2G	.	.	.	.	.	.	.
.	.	.	.	.	.	.	.	4e	.	.	.
=31	=31	=31	=31	=31	=31	=31	=31	=31	=31	=31	=31
4r	.	.	.	1F	n'ay	-vast	-me	1f	n'ay	-vast	-me
4.c	qu'a	par	qui	.	.	.	.	.	.	.	.
8B-	.	.	.	.	.	.	.	.	.	.	.
[4A	.	.	.	.	.	.	.	.	.	.	.
=32	=32	=32	=32	=32	=32	=32	=32	=32	=32	=32	=32
8AL]	.	.	.	2.f	qu'a	par	qui	2r	.	.	.
8G	.	.	.	.	.	.	.	.	.	.	.
8F	.	.	.	.	.	.	.	.	.	.	.
8EJ	.	.	.	.	.	.	.	.	.	.	.
2D	.	.	.	.	.	.	.	4.a	qu'a	par	qui
.	.	.	.	4d	.	.	.	.	.	.	.
.	.	.	.	.	.	.	.	8b-	.	.	.
!!LO:LB:g=original
=33	=33	=33	=33	=33	=33	=33	=33	=33	=33	=33	=33
4C	ma-	def-	la	4e	ma-	def-	la	4cc	.	.	.
4BB-	.	.	.	4f	.	.	.	4.dd	.	.	.
2C	-da-	.	.	4e	.	.	.	.	.	.	.
.	.	.	.	.	.	.	.	8cc	.	.	.
.	.	.	.	4c	.	.	.	[4cc	ma-	def-	la
=34	=34	=34	=34	=34	=34	=34	=34	=34	=34	=34	=34
2GG	-me	-fault	pris	2d	-da-	-fault	pris	4cc]	.	.	.
.	.	.	.	.	.	.	.	8b-L	.	.	.
.	.	.	.	.	.	.	.	8aJ	.	.	.
4r	.	.	.	2d	-me	de	en	8b-L	.	.	.
.	.	.	.	.	.	.	.	8a	.	.	.
4G	na-	de	en	.	.	.	.	8g	.	.	.
.	.	.	.	.	.	.	.	8fJ	.	.	.
=35	=35	=35	=35	=35	=35	=35	=35	=35	=35	=35	=35
2A	.	.	.	2c	na-	pas-	sa	2e	-da-	-fault	pris
4F	.	.	.	4A	.	.	.	4f	-me	de	en
[4G	.	pas-	sa	[4B-	-tu-	-tu-	cu-	[4d	na-	pas-	sa
=36	=36	=36	=36	=36	=36	=36	=36	=36	=36	=36	=36
4G]	.	.	.	8B-L]	.	.	.	4d]	.	.	.
.	.	.	.	8GJ	.	.	.	.	.	.	.
4E	.	.	.	2c	.	.	.	4e	.	.	.
2D	-tu-	-tu-	cu-	.	.	.	.	4f	-tu-	-tu-	cu-
.	.	.	.	4Bni	.	.	.	4g	.	.	.
=37	=37	=37	=37	=37	=37	=37	=37	=37	=37	=37	=37
1C;	-re,	-re.	-re.	1c;	-re,	-re.	-re.	1e;	-re,	-re.	-re,
!!LO:PB:g=original
=38||	=38||	=38||	=38||	=38||	=38||	=38||	=38||	=38||	=38||	=38||	=38||
*	*v:2,8.	*v:6	*	*	*v:2,8.	*v:6	*	*	*v:2,8.	*v:6	*
1C	Qui	Par	.	1c	Qui	Par	.	1g	Qui	Par	.
=39	=39	=39	=39	=39	=39	=39	=39	=39	=39	=39	=39
*lig	*	*	*	*	*	*	*	*	*	*	*
1GG	nous	tel	.	2B-	nous	tel	.	2g	nous	tel	.
*	*	*	*	*col	*edit	*	*	*	*	*	*
.	.	.	.	4.B-	vient	guer-	.	2g	vient	guer-	.
.	.	.	.	8A	.	.	.	.	.	.	.
*	*	*	*	*Xcol	*	*	*	*	*	*	*
=40	=40	=40	=40	=40	=40	=40	=40	=40	=40	=40	=40
1D	.	.	.	1F	se-	-don	.	2.a	se-	-don	.
.	.	.	.	.	.	.	.	8gL	.	.	.
.	.	.	.	.	.	.	.	8fJ	.	.	.
*Xlig	*	*	*	*	*	*	*	*	*	*	*
=41	=41	=41	=41	=41	=41	=41	=41	=41	=41	=41	=41
4C	vient	.	.	1G	.	.	.	4e	.	.	.
4BB-	.	.	.	.	.	.	.	4d	.	.	.
2GG	.	.	.	.	.	.	.	[2g	.	.	.
=42	=42	=42	=42	=42	=42	=42	=42	=42	=42	=42	=42
4r	.	.	.	2.B-	.	.	.	4g]	.	.	.
2GG	se-	geur-	.	.	.	.	.	8fL	.	.	.
.	.	.	.	.	.	.	.	8eJ	.	.	.
.	.	.	.	.	.	.	.	4d	.	.	.
[4AA	.	.	.	[4A	.	.	.	4c	.	.	.
=43	=43	=43	=43	=43	=43	=43	=43	=43	=43	=43	=43
8AAL]	.	.	.	4A]	.	.	.	4f	.	.	.
8BB-J	.	.	.	.	.	.	.	.	.	.	.
4C	.	.	.	4G	.	.	.	4e	.	.	.
4D	.	.	.	4F	.	.	.	4d	.	.	.
4GG	.	.	.	4G	.	.	.	[4e	-cou-	.	.
=44	=44	=44	=44	=44	=44	=44	=44	=44	=44	=44	=44
2BB-	-cou-	.	.	2D	-cou-	.	.	4e]	.	.	.
.	.	.	.	.	.	.	.	2d	.	.	.
2AA	-rant	-don	.	2E	.	.	.	.	.	.	.
.	.	.	.	.	.	.	.	4c#i	.	.	.
=45	=45	=45	=45	=45	=45	=45	=45	=45	=45	=45	=45
2rD	.	.	.	1D	-rant	.	.	2d	-rant	.	.
2A	en	et	.	.	.	.	.	2r	.	.	.
!!LO:LB:g=original
=46	=46	=46	=46	=46	=46	=46	=46	=46	=46	=46	=46
2.F	grief	tel-	.	2r	.	.	.	2.a	en	et	.
.	.	.	.	4.F	en	et	.	.	.	.	.
[4D	.	.	.	.	.	.	.	[4f	grief	tel-	.
.	.	.	.	8G	.	.	.	.	.	.	.
=47	=47	=47	=47	=47	=47	=47	=47	=47	=47	=47	=47
4D]	.	.	.	4.A	grief	tel-	.	4f]	.	.	.
8CL	.	.	.	.	.	.	.	8eL	.	.	.
8BB-J	.	.	.	8B-	.	.	.	8dJ	.	.	.
2AA	.	-le	.	2c	.	-le	.	4e	.	-le	.
.	.	.	.	.	.	.	.	[4a	ar-	nour-	.
=48	=48	=48	=48	=48	=48	=48	=48	=48	=48	=48	=48
4r	.	.	.	4.A	ar-	nour-	.	8aL]	.	.	.
.	.	.	.	.	.	.	.	8b-J	.	.	.
2F	ar-	nour-	.	.	.	.	.	4cc	.	.	.
.	.	.	.	8B-	.	.	.	.	.	.	.
.	.	.	.	4c	.	-ri-	.	4a	.	.	.
4BB-	.	-ri-	.	4d	.	.	.	[4b-	.	-ri-	.
=49	=49	=49	=49	=49	=49	=49	=49	=49	=49	=49	=49
2F	-du-	-tu-	.	2A	-du-	-tu-	.	4b-]	.	.	.
.	.	.	.	.	.	.	.	2a	.	.	.
4G	.	.	.	2B-	.	.	.	.	.	.	.
4E	.	.	.	.	.	.	.	4g	.	.	.
=50	=50	=50	=50	=50	=50	=50	=50	=50	=50	=50	=50
4.F	.	.	.	1A	-re	-re	.	4.a	-du-	-tu-	.
8E	.	.	.	.	.	.	.	8g	.	.	.
4C	.	.	.	.	.	.	.	8fL	.	.	.
.	.	.	.	.	.	.	.	8eJ	.	.	.
[4D	.	.	.	.	.	.	.	[4f	.	.	.
=51	=51	=51	=51	=51	=51	=51	=51	=51	=51	=51	=51
8DL]	.	.	.	2r	.	.	.	4f]	.	.	.
8CJ	.	.	.	.	.	.	.	.	.	.	.
4D	.	.	.	.	.	.	.	8eL	.	.	.
.	.	.	.	.	.	.	.	8dJ	.	.	.
2AA	-re	-re	.	[2A	Et	Qu'elle	.	2c	-re	-re	.
=52	=52	=52	=52	=52	=52	=52	=52	=52	=52	=52	=52
4.C	Et	Qu'elle	.	4A]	.	.	.	4r	.	.	.
.	.	.	.	2G	si	.	.	2e	Et	Qu'elle	.
8D	.	.	.	.	.	.	.	.	.	.	.
8EL	.	.	.	.	.	.	.	.	.	.	.
8FJ	.	.	.	.	.	.	.	.	.	.	.
4G	.	.	.	4E	.	.	.	4c	si	.	.
!!LO:LB:g=original
=53	=53	=53	=53	=53	=53	=53	=53	=53	=53	=53	=53
4A	si	a	.	2D	.	.	.	2f	me	a	.
4B-	.	.	.	.	.	.	.	.	.	.	.
2c	me	.	.	2C	me	a	.	4.e	ga-	.	.
.	.	.	.	.	.	.	.	8f	.	.	.
=54	=54	=54	=54	=54	=54	=54	=54	=54	=54	=54	=54
4r	.	.	.	4.C	ga-	mis	.	4g	.	.	.
2c	ga-	mis	.	.	.	.	.	4a	.	.	.
.	.	.	.	8D	.	.	.	.	.	.	.
.	.	.	.	4E	.	.	.	4g	.	.	.
8B-L	.	.	.	4F	.	.	.	4cc	.	.	.
8AJ	.	.	.	.	.	.	.	.	.	.	.
=55	=55	=55	=55	=55	=55	=55	=55	=55	=55	=55	=55
4G	.	.	.	4G	.	.	.	4b-	.	.	.
2F	-ri-	.	.	4.A	-ri-	.	.	2a	.	.	.
.	.	.	.	8B-	.	.	.	.	.	.	.
8EL	.	.	.	[4c	.	.	.	8gL	.	.	.
8DJ	.	.	.	.	.	.	.	8fJ	.	.	.
=56	=56	=56	=56	=56	=56	=56	=56	=56	=56	=56	=56
2C	-ra	fin	.	4c]	.	.	.	4e	.	.	.
.	.	.	.	8B-L	.	.	.	2g	-ri-	mis	.
.	.	.	.	8AJ	.	.	.	.	.	.	.
2r	.	.	.	4G	.	.	.	.	.	.	.
.	.	.	.	[4c	.	.	.	4e	.	.	.
=57	=57	=57	=57	=57	=57	=57	=57	=57	=57	=57	=57
2G	de	a	.	4c]	.	.	.	2d	-ra	fin	.
.	.	.	.	4Bni	.	.	.	.	.	.	.
8AL	ce	son	.	4c	-ra	fin	.	4r	.	.	.
8G	.	.	.	.	.	.	.	.	.	.	.
8F	.	.	.	4A	de	a	.	4c	de	a	.
8EJ	.	.	.	.	.	.	.	.	.	.	.
=58	=58	=58	=58	=58	=58	=58	=58	=58	=58	=58	=58
2D	.	.	.	8B-L	ce	son	.	4d	.	.	.
.	.	.	.	8A	.	.	.	.	.	.	.
.	.	.	.	8G	.	.	.	2f	ce	son	.
.	.	.	.	8FJ	.	.	.	.	.	.	.
4r	.	.	.	2G	.	.	.	.	.	.	.
4C	mal-	do-	.	.	.	.	.	4e	.	.	.
!!LO:LB:g=original
=59	=59	=59	=59	=59	=59	=59	=59	=59	=59	=59	=59
4D	.	.	.	2F	mal-	do-	.	4f	.	.	.
2F	.	.	.	.	.	.	.	2a	mal-	do-	.
.	.	.	.	2B-	.	.	.	.	.	.	.
4E	.	.	.	.	.	.	.	4g	.	.	.
=60	=60	=60	=60	=60	=60	=60	=60	=60	=60	=60	=60
4F	.	.	.	2A	.	.	.	4a	.	.	.
2A	.	.	.	.	.	.	.	2cc	.	.	.
.	.	.	.	2d	.	.	.	.	.	.	.
4G	.	.	.	.	.	.	.	4bni	.	.	.
=61	=61	=61	=61	=61	=61	=61	=61	=61	=61	=61	=61
4A	.	.	.	2c	.	-lent	.	4.cc	-heur,	-lent	.
4c	.	.	.	.	.	.	.	.	.	.	.
.	.	.	.	.	.	.	.	8a	.	.	.
2B-	.	.	.	2f	-heur,	.	.	2dd	.	.	.
=62	=62	=62	=62	=62	=62	=62	=62	=62	=62	=62	=62
*	*	*	*	*col	*	*	*	*	*	*	*
2F	-heur,	-lent	.	4.f	mal-	la-	.	8ccL	mal-	la-	.
.	.	.	.	.	.	.	.	8b-	.	.	.
.	.	.	.	.	.	.	.	8a	.	.	.
.	.	.	.	8e	.	.	.	8gJ	.	.	.
*	*	*	*	*Xcol	*	*	*	*	*	*	*
2r	.	.	.	4d	.	.	.	4b-	.	.	.
.	.	.	.	[4c	.	.	.	[4a	.	.	.
=63	=63	=63	=63	=63	=63	=63	=63	=63	=63	=63	=63
2F	mal-	la-	.	4c]	.	.	.	4a]	.	.	.
.	.	.	.	8B-L	.	.	.	8gL	.	.	.
.	.	.	.	8AJ	.	.	.	8fJ	.	.	.
4BB-	.	.	.	4B-	.	.	.	4g	.	.	.
4AA	.	.	.	4c	.	.	.	[4a	.	.	.
=64	=64	=64	=64	=64	=64	=64	=64	=64	=64	=64	=64
2D	.	.	.	2F	.	.	.	8aL]	.	.	.
.	.	.	.	.	.	.	.	8gJ	.	.	.
.	.	.	.	.	.	.	.	2f	.	.	.
2C	.	.	.	2G	.	.	.	.	.	.	.
.	.	.	.	.	.	.	.	4e	.	.	.
=65	=65	=65	=65	=65	=65	=65	=65	=65	=65	=65	=65
1FFl	-heur.	-beur.	.	1Fl	-heur.	-beur.	.	1fl	-heur.	-beur.	.
==	==	==	==	==	==	==	==	==	==	==	==
*-	*-	*-	*-	*-	*-	*-	*-	*-	*-	*-	*-
!!!system-decoration: [*]
!!!RDF**kern: i = editorial accidental
!!!RDF**kern: l = terminal breve
!!!PTL: Gaspar van Weerbeke: Collected Works. V. Settings of Liturgical Texts, Songs, and Instrumental Works
!!!ISBN: 978-1-59551-544-5
!!!PPR: American Institute of Musicology
!!!PC#: Corpus Mensurabilis Musicae 106/V
!!!PDT: 2020
!!!PED: Kolb, Paul
!!!YEC: Copyright 2018, Kolb, Paul
!!!YEM: CC-BY-NC 4.0 (https://creativecommons.org/licenses/by-nc/4.0/legalcode)
!!!EED: Mair-Gruber, Roland
!!!EEV: 2021/07/28
!!!muse2ps: C^@{COM}^i2I150v90,90,120c122z18l2700t130
